X:90
%%vocalfont Baskerville10Pro 11
%%pagewidth 7in
%%staffscale 0.9
T:The Mill-field
M:6/8
L:1/8
K:G
%%score 1 2
V:1 clef-treble
V:2 clef-bass octave=-1
V:1
[B,G]|A2B (cB)A&[DF]6|B2G d2B&[DG]3[DG]3|[DFA]2F D2D|E2F [B,G]2[B,G]&C3x3|
w:|Out, a-*las! what grief is this, That prin-ces' subjects can-not be true; But
V:2
G,|D6|G3B,3|D6|D3G,2G,|
V:1
A2B cBA&[DF]6|B2G d2B&[DG]3[DG]3|[DFA]2F D2D|E2F[B,G]2&C3x2||
w:still the Dev-il hath some of his Will play their parts what-e'er en-sue.
V:2
D6|G3B,3|D6|D3G,2||
V:1
[DB]|[DA]F2D2[Fe]|[Gd]B2G2[DB]|[DA]F2D2D|E2F[B,G]2[DB]&C3x3|
w:For-get-ting what a grie-vous thing It is to of\-fend th' a-nointed king. A
V:2
G|F3-F2c|B3-B2G|F3-F2D|D3G,2G|
V:1
[DA]F2D2[Ae]|[Gd]B2G2[DB]|[DA]F2D2D|E2F[B,G]2&C3x2||
w:las! for woe, why should~it be so? This makes a sor-row-ful heigh ho!
V:2
F3-F2c|B3-B2G|F3-F2D|D3G,2||


%%%%staffscale 1.0
